X: 1
T: Pernod
C: Johnny Cunningham
R: waltz
M: 3/4
L: 1/8
K: Bm
|: "Bm"f2 Bc de |"Bbaug" f6 |"Adim" fe ^de fg |"Em/G" f2 e2 fg |
   "A"a3 g f2 | e2 c4 |"Gb" cd ef ec |"G" d2 B2 de |
   "Bm"f2 Bc de |"Bbaug" f6 |"Adim" fe ^de fg |"Em/G" f2 e2 fg |
   "A"a3 g f2 | e2 c4 |"Gb" cd ef ec |"G" d2 B4 ||
   "Em"Be z g fe | Be z g fe |"A" a2 ef (3gfe |"Bm" fd B4 |
   "Em"GB z d cB |"Bm" FB z d cB |"A" cd ef ec |"G" d2 B4 |
   "Em"Be z g fe | Be z g fe |"A" a2 ef (3gfe |"Bm" fd B4 |
   "Em"GB z d cB |"Bm" FB z d cB |"A" cd ef ec |"G" d2 Bc de :|["last time" "Bm" d2 B4 |]

